Sweet-Rainbow/icons/texstudio.svg

<?xml version="1.0" encoding="UTF-8" standalone="no"?>
<!-- Generator: Gravit.io -->

<svg
   xmlns:dc="http://purl.org/dc/elements/1.1/"
   xmlns:cc="http://creativecommons.org/ns#"
   xmlns:rdf="http://www.w3.org/1999/02/22-rdf-syntax-ns#"
   xmlns:svg="http://www.w3.org/2000/svg"
   xmlns="http://www.w3.org/2000/svg"
   xmlns:sodipodi="http://sodipodi.sourceforge.net/DTD/sodipodi-0.dtd"
   xmlns:inkscape="http://www.inkscape.org/namespaces/inkscape"
   style="isolation:isolate"
   viewBox="0 0 36 36"
   width="48"
   height="48"
   version="1.1"
   id="svg11"
   sodipodi:docname="texstudio.svg"
   inkscape:version="0.92.4 (5da689c313, 2019-01-14)">
  <metadata
     id="metadata17">
    <rdf:RDF>
      <cc:Work
         rdf:about="">
        <dc:format>image/svg+xml</dc:format>
        <dc:type
           rdf:resource="http://purl.org/dc/dcmitype/StillImage" />
        <dc:title></dc:title>
      </cc:Work>
    </rdf:RDF>
  </metadata>
  <defs
     id="defs15" />
  <sodipodi:namedview
     pagecolor="#ffffff"
     bordercolor="#666666"
     borderopacity="1"
     objecttolerance="10"
     gridtolerance="10"
     guidetolerance="10"
     inkscape:pageopacity="0"
     inkscape:pageshadow="2"
     inkscape:window-width="640"
     inkscape:window-height="480"
     id="namedview13"
     showgrid="false"
     inkscape:zoom="29.365243"
     inkscape:cx="25.325443"
     inkscape:cy="32"
     inkscape:current-layer="svg11"
     units="px" />
  <linearGradient
     id="_lgradient_7"
     x1="0"
     y1="0.5"
     x2="1"
     y2="0.5"
     gradientTransform="matrix(46,0,0,46,1,1)"
     gradientUnits="userSpaceOnUse">
    <stop
       offset="0%"
       stop-opacity="1"
       style="stop-color:rgb(254,172,94)"
       id="stop2" />
    <stop
       offset="47.82608695652174%"
       stop-opacity="1"
       style="stop-color:rgb(199,121,208)"
       id="stop4" />
    <stop
       offset="97.82608695652173%"
       stop-opacity="1"
       style="stop-color:rgb(75,192,200)"
       id="stop6" />
  </linearGradient>
  <g
     id="g825"
     transform="matrix(0.7826087,0,0,0.7826087,-0.7826088,-0.7826088)">
    <path
       id="path9"
       d="m 5,12.55 v 0 c 0,1.104 -0.896,2 -2,2 v 0 c -1.104,0 -2,-0.896 -2,-2 v 0 V 6 C 1,3.24 3.24,1 6,1 h 36 c 2.76,0 5,2.24 5,5 v 19 0 c 0,1.104 -0.896,2 -2,2 v 0 c -1.104,0 -2,-0.896 -2,-2 V 25 8 C 43,6.344 41.656,5 40,5 H 8 C 6.344,5 5,6.344 5,8 Z m 38,22.9 v 0 c 0,-1.104 0.896,-2 2,-2 v 0 c 1.104,0 2,0.896 2,2 v 0 6.55 c 0,2.76 -2.24,5 -5,5 H 6 C 3.24,47 1,44.76 1,42 v -19.82 0 c 0,-1.104 0.896,-2 2,-2 v 0 c 1.104,0 2,0.896 2,2 v 0 V 40 c 0,1.656 1.344,3 3,3 h 32 c 1.656,0 3,-1.344 3,-3 z M 27.925,14.237 c -0.13,0.017 -0.227,0.127 -0.228,0.257 v 0.51 c 0,0.144 0.116,0.26 0.26,0.26 0.577,0 0.943,0.018 1.186,0.094 0.241,0.076 0.39,0.197 0.604,0.497 0.001,0.002 0.002,0.002 0.003,0.003 l 3.973,5.831 -3.573,5.224 c -0.838,1.213 -2.075,1.221 -2.469,1.221 -0.144,0 -0.26,0.117 -0.26,0.26 v 0.51 c 0,0.073 0.03,0.143 0.084,0.192 0.054,0.05 0.126,0.074 0.199,0.068 0.238,-0.02 0.583,-0.022 0.912,-0.026 -0.196,1.168 -0.43,2.057 -0.929,2.631 -0.543,0.626 -1.426,0.968 -3.102,0.968 h -2.933 c -0.206,0 -0.355,-0.006 -0.449,-0.022 -0.093,-0.017 -0.116,-0.036 -0.123,-0.043 -0.007,-0.006 -0.023,-0.026 -0.036,-0.11 -0.012,-0.084 -0.016,-0.22 -0.016,-0.4 v -5.645 h 1.731 c 0.965,0 1.399,0.17 1.628,0.484 0.229,0.313 0.296,0.888 0.296,1.77 0,0.144 0.116,0.26 0.259,0.26 h 0.342 c 0.143,0 0.259,-0.116 0.259,-0.26 v -5.496 c 0,-0.144 -0.116,-0.26 -0.259,-0.26 h -0.342 c -0.143,0 -0.259,0.116 -0.259,0.26 0,0.867 -0.065,1.434 -0.293,1.741 -0.228,0.306 -0.665,0.471 -1.631,0.471 H 21.028 V 20.51 c 0,-0.176 0.004,-0.305 0.016,-0.386 0.013,-0.082 0.027,-0.098 0.033,-0.104 0.006,-0.006 0.029,-0.026 0.123,-0.043 0.094,-0.016 0.246,-0.026 0.452,-0.026 h 2.888 c 1.6,0 2.407,0.31 2.884,0.904 0.477,0.593 0.655,1.567 0.803,2.956 0.015,0.132 0.127,0.231 0.259,0.23 h 0.381 c 0.073,0.001 0.144,-0.03 0.193,-0.085 0.05,-0.054 0.074,-0.127 0.066,-0.201 L 28.62,19.084 C 28.606,18.951 28.494,18.85 28.36,18.85 h -8.963 l -0.321,-4.34 c -0.009,-0.137 -0.123,-0.244 -0.26,-0.243 H 6.618 c -0.136,-10e-4 -0.25,0.104 -0.26,0.24 l -0.357,4.671 c -0.006,0.073 0.019,0.144 0.069,0.197 0.049,0.053 0.118,0.083 0.191,0.083 h 0.38 c 0.135,0 0.248,-0.103 0.26,-0.237 0.136,-1.744 0.298,-2.723 0.734,-3.22 0.218,-0.248 0.509,-0.405 0.968,-0.51 0.458,-0.104 1.076,-0.146 1.887,-0.146 h 1.127 c 0.149,0.023 0.128,0.021 0.15,0.078 0.021,0.058 0.032,0.225 0.032,0.468 V 27.39 c 0,0.188 -0.007,0.329 -0.029,0.413 -0.022,0.084 -0.039,0.112 -0.107,0.156 -0.136,0.087 -0.571,0.169 -1.449,0.169 H 9.616 c -0.143,0 -0.26,0.116 -0.26,0.26 v 0.51 c 0,0.07 0.029,0.137 0.079,0.186 0.05,0.049 0.118,0.075 0.188,0.074 1.013,-0.02 2.066,-0.039 3.099,-0.039 1.03,0 2.086,0.019 3.099,0.039 0.07,10e-4 0.138,-0.025 0.188,-0.074 0.05,-0.049 0.078,-0.116 0.078,-0.186 v -0.51 c 0,-0.144 -0.116,-0.26 -0.26,-0.26 h -0.591 c -0.865,0 -1.291,-0.083 -1.423,-0.169 C 13.747,27.916 13.731,27.891 13.709,27.806 13.688,27.722 13.68,27.578 13.68,27.39 V 15.891 c 0,-0.233 0.01,-0.393 0.033,-0.455 0.021,-0.059 0.017,-0.063 0.136,-0.091 h 1.111 c 0.793,0 1.399,0.041 1.852,0.143 0.452,0.102 0.746,0.257 0.964,0.5 0.41,0.456 0.583,1.35 0.715,2.862 h -0.828 c -0.144,0 -0.26,0.117 -0.26,0.26 v 0.582 c 0,0.143 0.116,0.259 0.26,0.259 0.748,0 1.178,0.027 1.319,0.095 0.07,0.033 0.085,0.05 0.113,0.133 0.029,0.083 0.046,0.235 0.046,0.461 v 11.399 c 0,0.226 -0.017,0.385 -0.046,0.468 -0.028,0.083 -0.044,0.099 -0.113,0.133 -0.14,0.067 -0.57,0.091 -1.319,0.091 -0.144,0 -0.26,0.116 -0.26,0.26 v 0.513 c 0,0.143 0.116,0.26 0.26,0.26 h 10.992 c 0.13,-0.001 0.239,-0.096 0.257,-0.224 l 0.627,-4.415 c 0.577,0 1.519,0.002 2.004,0.039 0.072,0.005 0.143,-0.019 0.196,-0.068 0.052,-0.048 0.083,-0.117 0.084,-0.189 v -0.51 c 0,-0.134 -0.101,-0.246 -0.234,-0.259 -0.274,-0.027 -0.411,-0.118 -0.494,-0.218 -0.083,-0.1 -0.117,-0.226 -0.117,-0.348 0,-0.206 0.057,-0.277 0.162,-0.425 0.002,-10e-4 0.003,-0.002 0.004,-0.003 l 3.164,-4.62 3.459,5.087 c 10e-4,0.002 0.002,0.005 0.004,0.007 0.077,0.108 0.108,0.17 0.116,0.191 0.009,0.022 0.004,-0.008 0.004,0.02 0,-0.031 -0.028,0.273 -0.686,0.312 -0.137,0.008 -0.244,0.122 -0.243,0.26 v 0.51 c 0,0.071 0.03,0.139 0.083,0.187 0.052,0.049 0.122,0.074 0.193,0.069 0.66,-0.039 1.691,-0.039 2.387,-0.039 0.548,0 1.611,0.001 2.096,0.039 0.071,0.006 0.142,-0.019 0.195,-0.067 0.053,-0.049 0.083,-0.117 0.084,-0.189 v -0.51 c 0,-0.144 -0.116,-0.26 -0.26,-0.26 -0.67,0 -1.04,-0.033 -1.254,-0.111 -0.212,-0.077 -0.316,-0.194 -0.516,-0.477 l -0.004,-0.003 -4.541,-6.643 3.021,-4.37 c 0.001,-10e-4 0.003,-0.002 0.003,-0.003 0.315,-0.446 0.833,-1.248 2.473,-1.27 0.142,-0.002 0.256,-0.118 0.256,-0.26 v -0.51 c 0,-0.072 -0.031,-0.141 -0.085,-0.19 -0.054,-0.049 -0.125,-0.073 -0.197,-0.067 -0.461,0.039 -1.265,0.039 -1.771,0.039 -0.695,0 -1.564,0 -2.069,-0.039 -0.072,-0.005 -0.143,0.02 -0.195,0.068 -0.053,0.049 -0.084,0.117 -0.085,0.189 v 0.51 c 0,0.135 0.103,0.248 0.238,0.26 0.286,0.027 0.417,0.116 0.497,0.214 0.079,0.098 0.11,0.227 0.11,0.354 0,0.182 -0.061,0.283 -0.205,0.484 -10e-4,0.002 -0.002,0.003 -0.003,0.004 l -2.576,3.732 -2.91,-4.262 c -0.065,-0.101 -0.102,-0.169 -0.114,-0.198 -0.013,-0.03 -0.007,-0.011 -0.007,-0.016 0,0.019 0.064,-0.295 0.676,-0.312 0.141,-0.004 0.253,-0.119 0.253,-0.26 v -0.51 c 0,-0.071 -0.03,-0.139 -0.083,-0.188 -0.052,-0.048 -0.122,-0.073 -0.193,-0.069 -0.661,0.04 -1.695,0.039 -2.391,0.039 -0.546,0 -1.609,-10e-4 -2.092,-0.039 -0.017,-10e-4 -0.034,-10e-4 -0.052,0 z"
       inkscape:connector-curvature="0"
       style="fill:url(#_lgradient_7);fill-rule:evenodd" />
  </g>
</svg>

<?xml version="1.0" encoding="UTF-8" standalone="no"?><!-- Generator: Gravit.io --><svg xmlns="http://www.w3.org/2000/svg" xmlns:xlink="http://www.w3.org/1999/xlink" style="isolation:isolate" viewBox="0 0 48 48" width="48pt" height="48pt"><linearGradient id="_lgradient_7" x1="0" y1="0.5" x2="1" y2="0.5" gradientTransform="matrix(46,0,0,46,1,1)" gradientUnits="userSpaceOnUse"><stop offset="0%" stop-opacity="1" style="stop-color:rgb(254,172,94)"/><stop offset="47.82608695652174%" stop-opacity="1" style="stop-color:rgb(199,121,208)"/><stop offset="97.82608695652173%" stop-opacity="1" style="stop-color:rgb(75,192,200)"/></linearGradient><path d=" M 5 12.55 L 5 12.55 C 5 13.654 4.104 14.55 3 14.55 L 3 14.55 C 1.896 14.55 1 13.654 1 12.55 L 1 12.55 L 1 6 C 1 3.24 3.24 1 6 1 L 42 1 C 44.76 1 47 3.24 47 6 L 47 25 L 47 25 C 47 26.104 46.104 27 45 27 L 45 27 C 43.896 27 43 26.104 43 25 L 43 25 L 43 8 C 43 6.344 41.656 5 40 5 L 8 5 C 6.344 5 5 6.344 5 8 L 5 12.55 L 5 12.55 Z  M 43 35.45 L 43 35.45 C 43 34.346 43.896 33.45 45 33.45 L 45 33.45 C 46.104 33.45 47 34.346 47 35.45 L 47 35.45 L 47 42 C 47 44.76 44.76 47 42 47 L 6 47 C 3.24 47 1 44.76 1 42 L 1 22.18 L 1 22.18 C 1 21.076 1.896 20.18 3 20.18 L 3 20.18 C 4.104 20.18 5 21.076 5 22.18 L 5 22.18 L 5 40 C 5 41.656 6.344 43 8 43 L 40 43 C 41.656 43 43 41.656 43 40 L 43 35.45 L 43 35.45 Z  M 27.925 14.237 C 27.795 14.254 27.698 14.364 27.697 14.494 L 27.697 15.004 C 27.697 15.148 27.813 15.264 27.957 15.264 C 28.534 15.264 28.9 15.282 29.143 15.358 C 29.384 15.434 29.533 15.555 29.747 15.855 C 29.748 15.857 29.749 15.857 29.75 15.858 L 33.723 21.689 L 30.15 26.913 C 29.312 28.126 28.075 28.134 27.681 28.134 C 27.537 28.134 27.421 28.251 27.421 28.394 L 27.421 28.904 C 27.421 28.977 27.451 29.047 27.505 29.096 C 27.559 29.146 27.631 29.17 27.704 29.164 C 27.942 29.144 28.287 29.142 28.616 29.138 C 28.42 30.306 28.186 31.195 27.687 31.769 C 27.144 32.395 26.261 32.737 24.585 32.737 L 21.652 32.737 C 21.446 32.737 21.297 32.731 21.203 32.715 C 21.11 32.698 21.087 32.679 21.08 32.672 C 21.073 32.666 21.057 32.646 21.044 32.562 C 21.032 32.478 21.028 32.342 21.028 32.162 L 21.028 26.517 L 22.759 26.517 C 23.724 26.517 24.158 26.687 24.387 27.001 C 24.616 27.314 24.683 27.889 24.683 28.771 C 24.683 28.915 24.799 29.031 24.942 29.031 L 25.284 29.031 C 25.427 29.031 25.543 28.915 25.543 28.771 L 25.543 23.275 C 25.543 23.131 25.427 23.015 25.284 23.015 L 24.942 23.015 C 24.799 23.015 24.683 23.131 24.683 23.275 C 24.683 24.142 24.618 24.709 24.39 25.016 C 24.162 25.322 23.725 25.487 22.759 25.487 L 21.028 25.487 L 21.028 20.51 C 21.028 20.334 21.032 20.205 21.044 20.124 C 21.057 20.042 21.071 20.026 21.077 20.02 C 21.083 20.014 21.106 19.994 21.2 19.977 C 21.294 19.961 21.446 19.951 21.652 19.951 L 24.54 19.951 C 26.14 19.951 26.947 20.261 27.424 20.855 C 27.901 21.448 28.079 22.422 28.227 23.811 C 28.242 23.943 28.354 24.042 28.486 24.041 L 28.867 24.041 C 28.94 24.042 29.011 24.011 29.06 23.956 C 29.11 23.902 29.134 23.829 29.126 23.755 L 28.62 19.084 C 28.606 18.951 28.494 18.85 28.36 18.85 L 19.397 18.85 L 19.076 14.51 C 19.067 14.373 18.953 14.266 18.816 14.267 L 6.618 14.267 C 6.482 14.266 6.368 14.371 6.358 14.507 L 6.001 19.178 C 5.995 19.251 6.02 19.322 6.07 19.375 C 6.119 19.428 6.188 19.458 6.261 19.458 L 6.641 19.458 C 6.776 19.458 6.889 19.355 6.901 19.221 C 7.037 17.477 7.199 16.498 7.635 16.001 C 7.853 15.753 8.144 15.596 8.603 15.491 C 9.061 15.387 9.679 15.345 10.49 15.345 L 11.617 15.345 C 11.766 15.368 11.745 15.366 11.767 15.423 C 11.788 15.481 11.799 15.648 11.799 15.891 L 11.799 27.39 C 11.799 27.578 11.792 27.719 11.77 27.803 C 11.748 27.887 11.731 27.915 11.663 27.959 C 11.527 28.046 11.092 28.128 10.214 28.128 L 9.616 28.128 C 9.473 28.128 9.356 28.244 9.356 28.388 L 9.356 28.898 C 9.356 28.968 9.385 29.035 9.435 29.084 C 9.485 29.133 9.553 29.159 9.623 29.158 C 10.636 29.138 11.689 29.119 12.722 29.119 C 13.752 29.119 14.808 29.138 15.821 29.158 C 15.891 29.159 15.959 29.133 16.009 29.084 C 16.059 29.035 16.087 28.968 16.087 28.898 L 16.087 28.388 C 16.087 28.244 15.971 28.128 15.827 28.128 L 15.236 28.128 C 14.371 28.128 13.945 28.045 13.813 27.959 C 13.747 27.916 13.731 27.891 13.709 27.806 C 13.688 27.722 13.68 27.578 13.68 27.39 L 13.68 15.891 C 13.68 15.658 13.69 15.498 13.713 15.436 C 13.734 15.377 13.73 15.373 13.849 15.345 L 14.96 15.345 C 15.753 15.345 16.359 15.386 16.812 15.488 C 17.264 15.59 17.558 15.745 17.776 15.988 C 18.186 16.444 18.359 17.338 18.491 18.85 L 17.663 18.85 C 17.519 18.85 17.403 18.967 17.403 19.11 L 17.403 19.692 C 17.403 19.835 17.519 19.951 17.663 19.951 C 18.411 19.951 18.841 19.978 18.982 20.046 C 19.052 20.079 19.067 20.096 19.095 20.179 C 19.124 20.262 19.141 20.414 19.141 20.64 L 19.141 32.039 C 19.141 32.265 19.124 32.424 19.095 32.507 C 19.067 32.59 19.051 32.606 18.982 32.64 C 18.842 32.707 18.412 32.731 17.663 32.731 C 17.519 32.731 17.403 32.847 17.403 32.991 L 17.403 33.504 C 17.403 33.647 17.519 33.764 17.663 33.764 L 28.655 33.764 C 28.785 33.763 28.894 33.668 28.912 33.54 L 29.539 29.125 C 30.116 29.125 31.058 29.127 31.543 29.164 C 31.615 29.169 31.686 29.145 31.739 29.096 C 31.791 29.048 31.822 28.979 31.823 28.907 L 31.823 28.397 C 31.823 28.263 31.722 28.151 31.589 28.138 C 31.315 28.111 31.178 28.02 31.095 27.92 C 31.012 27.82 30.978 27.694 30.978 27.572 C 30.978 27.366 31.035 27.295 31.14 27.147 C 31.142 27.146 31.143 27.145 31.144 27.144 L 34.308 22.524 L 37.767 27.611 C 37.768 27.613 37.769 27.616 37.771 27.618 C 37.848 27.726 37.879 27.788 37.887 27.809 C 37.896 27.831 37.891 27.801 37.891 27.829 C 37.891 27.798 37.863 28.102 37.205 28.141 C 37.068 28.149 36.961 28.263 36.962 28.401 L 36.962 28.911 C 36.962 28.982 36.992 29.05 37.045 29.098 C 37.097 29.147 37.167 29.172 37.238 29.167 C 37.898 29.128 38.929 29.128 39.625 29.128 C 40.173 29.128 41.236 29.129 41.721 29.167 C 41.792 29.173 41.863 29.148 41.916 29.1 C 41.969 29.051 41.999 28.983 42 28.911 L 42 28.401 C 42 28.257 41.884 28.141 41.74 28.141 C 41.07 28.141 40.7 28.108 40.486 28.03 C 40.274 27.953 40.17 27.836 39.97 27.553 L 39.966 27.55 L 35.425 20.907 L 38.446 16.537 C 38.447 16.536 38.449 16.535 38.449 16.534 C 38.764 16.088 39.282 15.286 40.922 15.264 C 41.064 15.262 41.178 15.146 41.178 15.004 L 41.178 14.494 C 41.178 14.422 41.147 14.353 41.093 14.304 C 41.039 14.255 40.968 14.231 40.896 14.237 C 40.435 14.276 39.631 14.276 39.125 14.276 C 38.43 14.276 37.561 14.276 37.056 14.237 C 36.984 14.232 36.913 14.257 36.861 14.305 C 36.808 14.354 36.777 14.422 36.776 14.494 L 36.776 15.004 C 36.776 15.139 36.879 15.252 37.014 15.264 C 37.3 15.291 37.431 15.38 37.511 15.478 C 37.59 15.576 37.621 15.705 37.621 15.832 C 37.621 16.014 37.56 16.115 37.416 16.316 C 37.415 16.318 37.414 16.319 37.413 16.32 L 34.837 20.052 L 31.927 15.79 C 31.862 15.689 31.825 15.621 31.813 15.592 C 31.8 15.562 31.806 15.581 31.806 15.576 C 31.806 15.595 31.87 15.281 32.482 15.264 C 32.623 15.26 32.735 15.145 32.735 15.004 L 32.735 14.494 C 32.735 14.423 32.705 14.355 32.652 14.306 C 32.6 14.258 32.53 14.233 32.459 14.237 C 31.798 14.277 30.764 14.276 30.068 14.276 C 29.522 14.276 28.459 14.275 27.976 14.237 C 27.959 14.236 27.942 14.236 27.924 14.237 L 27.925 14.237 Z " fill-rule="evenodd" fill="url(#_lgradient_7)"/></svg>
